src/assets/logo.svg

<svg xmlns="http://www.w3.org/2000/svg" viewBox="0 0 700 160" fill-rule="evenodd" stroke-linejoin="round" clip-rule="evenodd" stroke-miterlimit="1.414"><path d="M233.4 31c9.5.1 19.2 3.1 26.2 9.6l.8.8-4.5 8.7c-1.4 2.5-4.7 3.9-8.1 1.8-.2-.1-.4-.3-.6-.4-.4-.2-.7-.4-1.1-.7-2.3-1.4-4.6-2.6-7.2-3.3-6.4-1.9-14.5-.7-17.4 4.7-1.9 3.3-1.8 7.8.8 10.6 5 5.2 13.3 6.3 19.5 8.6 1.4.5 2.8 1.1 4.1 1.7 6.4 2.8 12.3 7.5 14.6 14.5 1.7 5 1.6 10.5.5 15.8-2.2 10.4-10.2 19.1-20.9 22.1-14 3.9-30.2-.3-40.4-10.7l-.8-.9 5.3-8.9c1.3-1.9 3.8-3 6-2.3 2.7.8 4.8 3 7.4 4.6 1.1.7 2.3 1.2 3.5 1.8 7.9 3.4 18.2 2.6 21.7-4.4 2-4 2-9.1-.9-12.3-4.8-5.2-13-6-19.5-8.3-1.2-.4-2.4-.9-3.6-1.4-6.6-2.8-12.4-7.7-14.8-15-3.4-10.6-.2-22.7 8.3-29.8 5.8-4.8 13.4-6.9 21-6.9zm447.7 28.3h17v13.1h-17c0 11.5-.1 23 0 34.5.1 3.6 3.3 6.8 7.9 4.5 1.8-.9 3.5-2 5.1-.4.3.3.5.6.8.9l5 8.4c-5.1 4.3-11.5 6.6-18.2 6.5-5.2 0-10.7-1.8-14-6.1-2.8-3.6-3.8-8.3-3.9-12.9V72.4c-2 0-3.7.1-5.8 0-2.1-.2-3.6-2.1-3.7-4.3V61l10.4-1.7 3.1-17.2c.5-2 2.3-3.4 4.4-3.4h8.9v20.5zM289 72.4c0 11.5-.1 23 0 34.5v.3c.2 3.4 3.3 6.4 7.9 4.1 1.8-.9 3.5-2 5.1-.4.3.3.5.6.8.9l5 8.4c-5.1 4.3-11.5 6.6-18.2 6.5-5.2 0-10.7-1.8-14-6.1-2.8-3.6-3.8-8.3-3.9-12.9V72.3c-2 0-3.7.1-5.8 0-2.1-.2-3.6-2.1-3.7-4.3v-7.1l10.4-1.7 3.1-17.2c.5-2 2.3-3.4 4.4-3.4h7.9l1 1v19.6h17v13.1h-17zm51-14.9c8.1.1 16.2 3.7 20.5 10.8 2.8 4.6 3.9 10 3.9 15.4v42.1c-2.8 0-5.7.1-8.5 0-1.9-.1-3.8-.8-4.8-2.3-.3-.5-.6-1.1-.8-1.7l-.9-3.2c-.2.2-.4.4-.7.6-6.3 5.4-14.6 8.6-23.2 7.5-4.6-.6-9.3-2.5-12.2-6.1-4.9-5.9-5.4-15.3-1.2-21.4 5.4-7.9 16.1-10.7 26.3-12 2.9-.4 5.8-.6 8.7-.7h.4c0-4.7.3-10.1-3.7-13.1-4.3-3.2-11-1.8-15.8 1l-3.6 2.1c-.7.4-.9.4-1.4.6-2.8.9-6-.2-7.8-3l-3.1-5.7c7.3-6.8 17-10.9 27.2-11.1h.7zm61.6.2c8.4.1 16.5 3.2 22.5 9.2l.7.7-4.5 6.4c-1.5 2-4.2 3-6.6 1.6-3.4-2-6.8-4-11.2-4-3.9 0-7.9 1.2-10.5 4.2-4.6 4.9-5.1 12.3-4.8 18.6.1 1.7.3 3.4.6 5.1.9 4.7 3.1 9.4 7.2 11.7 4.1 2.4 9.6 2.3 13.5.5 2.1-.9 3.6-2.3 5.6-3.7 2-1.4 5-1.2 6.5.9l4.9 6.4c-6.3 7.5-15.8 11.8-26.8 11.6-8.8-.2-17.4-4.6-22.5-11.8-7.2-10.2-8.3-24.2-4.6-36 2.9-9.2 10-16.9 19.4-19.8 3.5-1.1 7.2-1.5 10.8-1.5zM621 29.5v96.4h-10.4c-2.1 0-4.1-1.5-4.7-3.6l-.9-4.5-.5.5c-5.5 5.5-13.2 9-21.3 8.4-6.7-.5-12.9-4.3-16.7-10-5.5-8.1-6.6-18.6-5.9-28.3.9-11.7 6.4-23.6 17.3-28.6 3.7-1.7 7.7-2.4 11.8-2.3 5.1.1 10.1 1.9 14.1 5.1V29.4h17.3zm-174 96.4h-17.3V29.5H447v54.1c2 0 4 .1 5.3-1.6l.1-.2c5.3-6.7 10.6-13.3 15.8-20 .9-1.1 1.9-2.1 3.2-2.6.9-.4 1.9-.5 2.9-.5h16.1l-21.1 25.8c-.3.4-.3.4-.5.7-.9 1.2-2 2.2-3.2 3.1 0 0 1.9 2 3.3 4.2l.1.2 22.2 33.1h-15.8c-2.4 0-4.8-1.1-5.9-3.2l-16.3-24.8c-.1-.1-.1-.2-.2-.3-.8-1.2-2.2-1.6-3.6-1.6h-2.5v29.9zm202 0h-17.3V58.8H649v67.1zm-92.5-78.3h-39.8v23.5h31.4v15.1h-31.4v24h39.8v15.6H498V32h58.5v15.5zM347.2 98.1c-6.1.4-12.6.6-17.9 3.8-2.3 1.4-3.8 3.9-3.4 6.9.2 1.8 1.3 3.5 2.9 4.4 1.6.8 3.4 1 5.2 1 3.2-.1 6.3-1 9-2.7 1.6-1.1 3-2.4 4.4-3.8v-9.6h-.2zm244.9-26.7c-5.1.1-9.8 3.3-11.9 8.3-2.5 5.9-2.5 12.6-1.7 19.2.7 5.4 2.6 11.1 7.5 12.9 3.9 1.4 8.5.8 12-1.3 2.2-1.4 4-3.2 5.7-5.2V76.8c-2.8-3.3-7-5.3-11.5-5.3zm48.2-41.7c5.2.1 9.9 4.3 10.7 9.5 1 7.3-7.1 15.1-15.1 11.4-5.2-2.4-7.9-9.2-5.3-14.7 1.7-3.6 5.4-6.1 9.4-6.2h.3z" fill="#606060" fill-rule="nonzero"/><path d="M160 40c0-22.1-17.9-40-40-40H40C17.9 0 0 17.9 0 40v80c0 22.1 17.9 40 40 40h80c22.1 0 40-17.9 40-40V40z" fill="none"/><clipPath id="prefix__a"><path d="M160 40c0-22.1-17.9-40-40-40H40C17.9 0 0 17.9 0 40v80c0 22.1 17.9 40 40 40h80c22.1 0 40-17.9 40-40V40z"/></clipPath><g clip-path="url(#prefix__a)"><path d="M160 0H0l80 80 80-80z" fill="gold"/><path d="M0 0v160l80-80L0 0z" fill="#a5c700"/><path d="M0 160h160L80 80 0 160z" fill="#ff8a00"/><path d="M160 160V0L80 80l80 80z" fill="#66aefd"/><path d="M150-10L80 60l20 20 70-70-20-20z" fill="url(#prefix___Linear2)"/><path d="M170 150l-70-70-20 20 70 70 20-20z" fill="url(#prefix___Linear3)"/><path d="M10 170l70-70-20-20-70 70 20 20z" fill="url(#prefix___Linear4)"/><path d="M-10 10l70 70 20-20-70-70-20 20z" fill="url(#prefix___Linear5)"/></g><path d="M145 39c0-14.6-11.9-26.5-26.5-26.5h-77C26.9 12.5 15 24.4 15 39v77c0 14.6 11.9 26.5 26.5 26.5h77c14.6 0 26.5-11.9 26.5-26.5V39z" fill="#fff"/><path d="M30.9 40.1H40V27.9h9.3v12.2h11.3V27.9h9.3v12.2H79v11.3h-9.1v12.7H79v11.3h-9.1v12.2h-9.3V75.4H49.3v12.2H40V75.4h-9.1V64.1H40V51.4h-9.1V40.1zm18.5 11.3v12.7h11.3V51.4H49.4zM67.1 93.94v40.26h26.84v-13.42H80.52v-13.42h13.42V93.94H67.1zm33.55 0v40.26h13.42v-20.13l6.71 20.13h13.42V93.94h-13.42v20.13l-6.71-20.13h-13.42zm-53.68 26.84v13.42h13.42v-13.42H46.97z" fill="#737373"/><defs><linearGradient id="prefix___Linear2" x1="0" y1="0" x2="1" y2="0" gradientUnits="userSpaceOnUse" gradientTransform="rotate(-135 84.142 -23.134) scale(28.2866)"><stop offset="0" stop-color="#66aefd"/><stop offset="1" stop-color="gold"/></linearGradient><linearGradient id="prefix___Linear3" x1="0" y1="0" x2="1" y2="0" gradientUnits="userSpaceOnUse" gradientTransform="rotate(-45 263.163 -88.993) scale(28.2866)"><stop offset="0" stop-color="#ff8a00"/><stop offset="1" stop-color="#66aefd"/></linearGradient><linearGradient id="prefix___Linear4" x1="0" y1="0" x2="1" y2="0" gradientUnits="userSpaceOnUse" gradientTransform="rotate(45 -169.01 69.983) scale(28.2866)"><stop offset="0" stop-color="#a5c700"/><stop offset="1" stop-color="#ff8a00"/></linearGradient><linearGradient id="prefix___Linear5" x1="0" y1="0" x2="1" y2="0" gradientUnits="userSpaceOnUse" gradientTransform="rotate(135 9.992 4.14) scale(28.2866)"><stop offset="0" stop-color="gold"/><stop offset="1" stop-color="#a5c700"/></linearGradient></defs></svg>

<svg xmlns="http://www.w3.org/2000/svg" viewBox="0 0 700 160" fill-rule="evenodd" stroke-linejoin="round" clip-rule="evenodd" stroke-miterlimit="1.414"><path d="M233.4 31c9.5.1 19.2 3.1 26.2 9.6l.8.8-4.5 8.7c-1.4 2.5-4.7 3.9-8.1 1.8-.2-.1-.4-.3-.6-.4-.4-.2-.7-.4-1.1-.7-2.3-1.4-4.6-2.6-7.2-3.3-6.4-1.9-14.5-.7-17.4 4.7-1.9 3.3-1.8 7.8.8 10.6 5 5.2 13.3 6.3 19.5 8.6 1.4.5 2.8 1.1 4.1 1.7 6.4 2.8 12.3 7.5 14.6 14.5 1.7 5 1.6 10.5.5 15.8-2.2 10.4-10.2 19.1-20.9 22.1-14 3.9-30.2-.3-40.4-10.7l-.8-.9 5.3-8.9c1.3-1.9 3.8-3 6-2.3 2.7.8 4.8 3 7.4 4.6 1.1.7 2.3 1.2 3.5 1.8 7.9 3.4 18.2 2.6 21.7-4.4 2-4 2-9.1-.9-12.3-4.8-5.2-13-6-19.5-8.3-1.2-.4-2.4-.9-3.6-1.4-6.6-2.8-12.4-7.7-14.8-15-3.4-10.6-.2-22.7 8.3-29.8 5.8-4.8 13.4-6.9 21-6.9zm447.7 28.3h17v13.1h-17c0 11.5-.1 23 0 34.5.1 3.6 3.3 6.8 7.9 4.5 1.8-.9 3.5-2 5.1-.4.3.3.5.6.8.9l5 8.4c-5.1 4.3-11.5 6.6-18.2 6.5-5.2 0-10.7-1.8-14-6.1-2.8-3.6-3.8-8.3-3.9-12.9V72.4c-2 0-3.7.1-5.8 0-2.1-.2-3.6-2.1-3.7-4.3V61l10.4-1.7 3.1-17.2c.5-2 2.3-3.4 4.4-3.4h8.9v20.5zM289 72.4c0 11.5-.1 23 0 34.5v.3c.2 3.4 3.3 6.4 7.9 4.1 1.8-.9 3.5-2 5.1-.4.3.3.5.6.8.9l5 8.4c-5.1 4.3-11.5 6.6-18.2 6.5-5.2 0-10.7-1.8-14-6.1-2.8-3.6-3.8-8.3-3.9-12.9V72.3c-2 0-3.7.1-5.8 0-2.1-.2-3.6-2.1-3.7-4.3v-7.1l10.4-1.7 3.1-17.2c.5-2 2.3-3.4 4.4-3.4h7.9l1 1v19.6h17v13.1h-17zm51-14.9c8.1.1 16.2 3.7 20.5 10.8 2.8 4.6 3.9 10 3.9 15.4v42.1c-2.8 0-5.7.1-8.5 0-1.9-.1-3.8-.8-4.8-2.3-.3-.5-.6-1.1-.8-1.7l-.9-3.2c-.2.2-.4.4-.7.6-6.3 5.4-14.6 8.6-23.2 7.5-4.6-.6-9.3-2.5-12.2-6.1-4.9-5.9-5.4-15.3-1.2-21.4 5.4-7.9 16.1-10.7 26.3-12 2.9-.4 5.8-.6 8.7-.7h.4c0-4.7.3-10.1-3.7-13.1-4.3-3.2-11-1.8-15.8 1l-3.6 2.1c-.7.4-.9.4-1.4.6-2.8.9-6-.2-7.8-3l-3.1-5.7c7.3-6.8 17-10.9 27.2-11.1h.7zm61.6.2c8.4.1 16.5 3.2 22.5 9.2l.7.7-4.5 6.4c-1.5 2-4.2 3-6.6 1.6-3.4-2-6.8-4-11.2-4-3.9 0-7.9 1.2-10.5 4.2-4.6 4.9-5.1 12.3-4.8 18.6.1 1.7.3 3.4.6 5.1.9 4.7 3.1 9.4 7.2 11.7 4.1 2.4 9.6 2.3 13.5.5 2.1-.9 3.6-2.3 5.6-3.7 2-1.4 5-1.2 6.5.9l4.9 6.4c-6.3 7.5-15.8 11.8-26.8 11.6-8.8-.2-17.4-4.6-22.5-11.8-7.2-10.2-8.3-24.2-4.6-36 2.9-9.2 10-16.9 19.4-19.8 3.5-1.1 7.2-1.5 10.8-1.5zM621 29.5v96.4h-10.4c-2.1 0-4.1-1.5-4.7-3.6l-.9-4.5-.5.5c-5.5 5.5-13.2 9-21.3 8.4-6.7-.5-12.9-4.3-16.7-10-5.5-8.1-6.6-18.6-5.9-28.3.9-11.7 6.4-23.6 17.3-28.6 3.7-1.7 7.7-2.4 11.8-2.3 5.1.1 10.1 1.9 14.1 5.1V29.4h17.3zm-174 96.4h-17.3V29.5H447v54.1c2 0 4 .1 5.3-1.6l.1-.2c5.3-6.7 10.6-13.3 15.8-20 .9-1.1 1.9-2.1 3.2-2.6.9-.4 1.9-.5 2.9-.5h16.1l-21.1 25.8c-.3.4-.3.4-.5.7-.9 1.2-2 2.2-3.2 3.1 0 0 1.9 2 3.3 4.2l.1.2 22.2 33.1h-15.8c-2.4 0-4.8-1.1-5.9-3.2l-16.3-24.8c-.1-.1-.1-.2-.2-.3-.8-1.2-2.2-1.6-3.6-1.6h-2.5v29.9zm202 0h-17.3V58.8H649v67.1zm-92.5-78.3h-39.8v23.5h31.4v15.1h-31.4v24h39.8v15.6H498V32h58.5v15.5zM347.2 98.1c-6.1.4-12.6.6-17.9 3.8-2.3 1.4-3.8 3.9-3.4 6.9.2 1.8 1.3 3.5 2.9 4.4 1.6.8 3.4 1 5.2 1 3.2-.1 6.3-1 9-2.7 1.6-1.1 3-2.4 4.4-3.8v-9.6h-.2zm244.9-26.7c-5.1.1-9.8 3.3-11.9 8.3-2.5 5.9-2.5 12.6-1.7 19.2.7 5.4 2.6 11.1 7.5 12.9 3.9 1.4 8.5.8 12-1.3 2.2-1.4 4-3.2 5.7-5.2V76.8c-2.8-3.3-7-5.3-11.5-5.3zm48.2-41.7c5.2.1 9.9 4.3 10.7 9.5 1 7.3-7.1 15.1-15.1 11.4-5.2-2.4-7.9-9.2-5.3-14.7 1.7-3.6 5.4-6.1 9.4-6.2h.3z" fill="#606060" fill-rule="nonzero"/><path d="M160 40c0-22.1-17.9-40-40-40H40C17.9 0 0 17.9 0 40v80c0 22.1 17.9 40 40 40h80c22.1 0 40-17.9 40-40V40z" fill="none"/><clipPath id="prefix__a"><path d="M160 40c0-22.1-17.9-40-40-40H40C17.9 0 0 17.9 0 40v80c0 22.1 17.9 40 40 40h80c22.1 0 40-17.9 40-40V40z"/></clipPath><g clip-path="url(#prefix__a)"><path d="M160 0H0l80 80 80-80z" fill="gold"/><path d="M0 0v160l80-80L0 0z" fill="#a5c700"/><path d="M0 160h160L80 80 0 160z" fill="#ff8a00"/><path d="M160 160V0L80 80l80 80z" fill="#66aefd"/><path d="M150-10L80 60l20 20 70-70-20-20z" fill="url(#prefix___Linear2)"/><path d="M170 150l-70-70-20 20 70 70 20-20z" fill="url(#prefix___Linear3)"/><path d="M10 170l70-70-20-20-70 70 20 20z" fill="url(#prefix___Linear4)"/><path d="M-10 10l70 70 20-20-70-70-20 20z" fill="url(#prefix___Linear5)"/></g><path d="M145 39c0-14.6-11.9-26.5-26.5-26.5h-77C26.9 12.5 15 24.4 15 39v77c0 14.6 11.9 26.5 26.5 26.5h77c14.6 0 26.5-11.9 26.5-26.5V39z" fill="#fff"/><path d="m 30.9 40.1 h 9.1 v -12.2 h 9.3 v 12.2 h 11.3 v -12.2 h 9.3 v 12.2 h 9.1 v 11.3 h -9.1 v 12.7 h 9.1 v 11.3 h -9.1 v 12.2 h -9.3 v -12.2 h -11.3 v 12.2 h -9.3 v -12.2 h -9.1 v -11.3 h 9.1 v -12.7 h -9.1 v -11.3 z m 18.5 11.3 v 12.7 h 11.3 v -12.7 h -11.3 z m 25.6 45.6 v 14 h 20 v 20 h 14 v -20 h 20 v -14 h -20 v -20 h -14 v 20 h -20 z" fill="#737373"/><defs><linearGradient id="prefix___Linear2" x1="0" y1="0" x2="1" y2="0" gradientUnits="userSpaceOnUse" gradientTransform="rotate(-135 84.142 -23.134) scale(28.2866)"><stop offset="0" stop-color="#66aefd"/><stop offset="1" stop-color="gold"/></linearGradient><linearGradient id="prefix___Linear3" x1="0" y1="0" x2="1" y2="0" gradientUnits="userSpaceOnUse" gradientTransform="rotate(-45 263.163 -88.993) scale(28.2866)"><stop offset="0" stop-color="#ff8a00"/><stop offset="1" stop-color="#66aefd"/></linearGradient><linearGradient id="prefix___Linear4" x1="0" y1="0" x2="1" y2="0" gradientUnits="userSpaceOnUse" gradientTransform="rotate(45 -169.01 69.983) scale(28.2866)"><stop offset="0" stop-color="#a5c700"/><stop offset="1" stop-color="#ff8a00"/></linearGradient><linearGradient id="prefix___Linear5" x1="0" y1="0" x2="1" y2="0" gradientUnits="userSpaceOnUse" gradientTransform="rotate(135 9.992 4.14) scale(28.2866)"><stop offset="0" stop-color="gold"/><stop offset="1" stop-color="#a5c700"/></linearGradient></defs></svg>
